X: 1
T: Jennifer's Jig
C: Drummond Cook
B: Tae Gar Ye Loup Book 1
R: jig
Z: 2009 John Chambers <jc:trillian.mit.edu>
M: 6/8
L: 1/8
K: D
F \
| "D"A<dB A2F | "D"A<dc "G"B2G | "Em"B<ed "A7"cBc | "A7"A<ag "D"fdB \
| "D"A<dB A2F | "D"A<dc "G"B2G | "Em"B<ed "A7"cBA | "A7"gfe "D"d2 "Fine"y |]
e \
| "Bm"f2F FBd | "Bm"fbg fed | "A"e2E EAc | "A"eaf "F#m"edc \
| "Bm"d2B Bcd | "A7"e2c cde | "D"fef agf | "Em"efd "F#m"cde ||
e \
| "Bm"f2F FBd | "Bm"fbg fed | "A"e2E EAc | "A"eaf "F#m"edc \
| "Bm"d2B Bcd | "A7"e2c cde | "D"fef "Bm"agf | "A7"efd cB"d.C."A |]
